!!!OTL: SIE SOLLEN IHN NICHT HABEN DEN FREIEN DEUTSCHEN RHEIN
!!!ARE: Europa, Mitteleuropa, Deutschland
!!!SCT: B0025
!!!YEM: Copyright 1995, estate of Helmut Schaffrath.
**kern
*ICvox
*Ivox
*M4/4
*k[f#c#g#]
*A:
{4e
=1
4a
4a
4a
4b
=2
4cc#
4a
4e}
{4e
=3
4f#
8dd
8cc#
8b
8a
8b
8cc#
=4
2a
4r}
{4a
=5
4cc#
4cc#
4ee
8dd#
8cc#
=6
4.b
8a
4g#}
{4g#
=7
4f#
8a
8cc#
4b
4b
=8
2e
4r}
{4e
=9
4e
8f#
8g#
4a
8b
8c#
=10
2dd
4b}
{4ff#
=11
4dd
4cc#
4b
4a
=12
2ee
4r}
{4e
=13
4cc#
4b
4a
4g#
=14
4f#
4g#
4a}
{4b
=15
4cc#
8ee
8dd
4cc#
4b
=16
2a
4r}
==
!!!AGN: politisch, national, Vaterlands - Lied
!!!ONB: ESAC (Essen Associative Code) Database: BOEHME
!!!AMT: simple quadruple
!!!AIN: vox
!!!EED: Helmut Schaffrath
!!!EEV: 1.0
*-
